X: 173
M: C|
L: 1/16
K: G
|:\
{c4}TB8 GABc Td4- | d4 d4 c2 TB6 |\
d2ef g4 {g}Tf4 e4 | Td8 d4 e2fg |\
c4 B4 c2A2 F4 | G8 z8 :|

